azure-patterns/svg-slas.svg

<svg xmlns="http://www.w3.org/2000/svg" viewBox="0 0 41 27">
                                
                            
    <path d="M39.6346 18.3646C38.7448 17.4536 37.5294 16.9337 36.256 16.9196H35.5785C35.854 15.8103 36.0048 14.6738 36.0283 13.5311C36 6.55708 30.3539 0.910323 23.38 0.881104C17.9828 0.945017 13.2004 4.37388 11.4075 9.46502C10.4891 9.19603 9.5404 9.04422 8.58392 9.0132C3.72727 9.0132 0 12.9662 0 17.8228C0 22.6795 3.84033 26.6329 8.58392 26.6329H36.4818C39.0797 26.2941 40.9996 24.2611 40.9996 21.7762C41.0155 20.5029 40.5244 19.2755 39.6346 18.3646Z" fill="#027DCD"></path>
</svg>

<svg xmlns="http://www.w3.org/2000/svg" viewBox="0 0 41 27"><path d="M39.635 18.365a4.797 4.797 0 0 0-3.379-1.445h-.678c.276-1.11.427-2.246.45-3.389C36 6.557 30.354.911 23.38.881a12.855 12.855 0 0 0-11.972 8.584 11.355 11.355 0 0 0-2.824-.452C3.727 9.013 0 12.966 0 17.823c0 4.857 3.84 8.81 8.584 8.81h27.898C39.08 26.294 41 24.26 41 21.776a4.797 4.797 0 0 0-1.365-3.411z" fill="#027DCD"/></svg>
